packages/icons/svgs/duotone/Source=github.svg

<svg xmlns="http://www.w3.org/2000/svg" width="24" height="24" viewBox="0 0 24 24"><g clip-path="url(#a)"><path fill-rule="evenodd" d="M12 .3C5.4.3 0 5.7 0 12.3c0 5.3 3.4 9.8 8.2 11.4.6.1.8-.3.8-.6v-2c-3.3.7-4-1.6-4-1.6-.5-1.4-1.3-1.8-1.3-1.8-1.2-.7 0-.7 0-.7 1.2.1 1.8 1.2 1.8 1.2 1.1 1.8 2.8 1.3 3.5 1 .1-.8.4-1.3.8-1.6-2.7-.3-5.5-1.3-5.5-5.9 0-1.3.5-2.4 1.2-3.2 0-.4-.5-1.6.2-3.2 0 0 1-.3 3.3 1.2 1-.3 2-.4 3-.4s2 .1 3 .4c2.3-1.6 3.3-1.2 3.3-1.2.7 1.7.2 2.9.1 3.2.8.8 1.2 1.9 1.2 3.2 0 4.6-2.8 5.6-5.5 5.9.4.4.8 1.1.8 2.2v3.3c0 .3.2.7.8.6 4.8-1.6 8.2-6.1 8.2-11.4C24 5.7 18.6.3 12 .3" clip-rule="evenodd"/></g><defs><clipPath id="a"><path fill="#fff" d="M0 0h24v24H0z"/></clipPath></defs></svg>

<svg width="24" height="24" viewBox="0 0 24 24" fill="none" xmlns="http://www.w3.org/2000/svg">
<g clip-path="url(#clip0_1721_850)">
<path fill-rule="evenodd" clip-rule="evenodd" d="M12 0.300003C5.4 0.300003 0 5.7 0 12.3C0 17.6 3.4 22.1 8.2 23.7C8.8 23.8 9 23.4 9 23.1C9 22.8 9 22.1 9 21.1C5.7 21.8 5 19.5 5 19.5C4.5 18.1 3.7 17.7 3.7 17.7C2.5 17 3.7 17 3.7 17C4.9 17.1 5.5 18.2 5.5 18.2C6.6 20 8.3 19.5 9 19.2C9.1 18.4 9.4 17.9 9.8 17.6C7.1 17.3 4.3 16.3 4.3 11.7C4.3 10.4 4.8 9.3 5.5 8.5C5.5 8.1 5 6.9 5.7 5.3C5.7 5.3 6.7 5 9 6.5C10 6.2 11 6.1 12 6.1C13 6.1 14 6.2 15 6.5C17.3 4.9 18.3 5.3 18.3 5.3C19 7 18.5 8.2 18.4 8.5C19.2 9.3 19.6 10.4 19.6 11.7C19.6 16.3 16.8 17.3 14.1 17.6C14.5 18 14.9 18.7 14.9 19.8C14.9 21.4 14.9 22.7 14.9 23.1C14.9 23.4 15.1 23.8 15.7 23.7C20.5 22.1 23.9 17.6 23.9 12.3C24 5.7 18.6 0.300003 12 0.300003Z" fill="black" style="fill:black;fill-opacity:1;"/>
</g>
<defs>
<clipPath id="clip0_1721_850">
<rect width="24" height="24" fill="white" style="fill:white;fill-opacity:1;"/>
</clipPath>
</defs>
</svg>
